icons/outline/sun-low.svg

<!--
tags: [temperature, cold, wheater, thermometer, forecast]
category: Weather
version: "1.73"
unicode: "f237"
-->
<svg
  xmlns="http://www.w3.org/2000/svg"
  width="24"
  height="24"
  viewBox="0 0 24 24"
  fill="none"
  stroke="currentColor"
  stroke-width="2"
  stroke-linecap="round"
  stroke-linejoin="round"
>
  <path d="M12 12m-4 0a4 4 0 1 0 8 0a4 4 0 1 0 -8 0m-4 0h.01m7.99 -8v.01m8 7.99h.01m-8.01 8v.01m-5.69 -13.7l-.01 -.01m11.41 .01l-.01 -.01m0 11.4l.01 .01m-11.41 -.01l.01 .01" />
</svg>

<!--
tags: [temperature, cold, wheater, thermometer, forecast]
category: Weather
version: "1.73"
unicode: "f237"
-->
<svg
  xmlns="http://www.w3.org/2000/svg"
  width="24"
  height="24"
  viewBox="0 0 24 24"
  fill="none"
  stroke="currentColor"
  stroke-width="2"
  stroke-linecap="round"
  stroke-linejoin="round"
>
    <path d="M12 12m-4 0a4 4 0 1 0 8 0a4 4 0 1 0 -8 0M4 12h.01M12 4v.01M20 12h.01M12 20v.01M6.31 6.31l-.01 -.01M17.71 6.31l-.01 -.01M17.7 17.7l.01 .01M6.3 17.7l.01 .01" />
</svg>
